packages/foundations/assets/icons/functional/images/technology/qr_code_32.svg

<svg width="32" height="32" viewBox="0 0 32 32" fill="none" xmlns="http://www.w3.org/2000/svg">
<g clip-path="url(#clip0_187_615)">
<path fill-rule="evenodd" clip-rule="evenodd" d="M12.0625 17C13.6875 17 15 18.3438 15 19.9688V26.0625C15 27.6875 13.6875 29 12.0625 29H5.96875C4.34375 29 3 27.6875 3 26.0625V19.9688C3.03125 18.3438 4.34375 17 5.96875 17H12.0625ZM12.0625 19H5.96875C5.4375 19 5 19.4375 5 19.9688V26.0312C5 26.5625 5.4375 27 5.96875 27H12.0625C12.5938 27 13 26.5625 13 26.0312V19.9688C13 19.4375 12.5938 19 12.0625 19ZM12.0625 3C13.6955 3 15 4.33457 15 5.96875V12.0625C15 13.6875 13.6875 15 12.0625 15H5.9375C4.3125 15 3 13.6875 3 12.0625V5.96875C3 4.34375 4.3125 3 5.9375 3H12.0625ZM12.0625 5H5.96875C5.4375 5 5 5.4375 5 5.96875V12.0625C5 12.5938 5.4375 13 5.96875 13.0312H12.0625C12.5938 13 13 12.5938 13 12.0625V5.96875C13 5.4375 12.5938 5.03125 12.0625 5ZM22 17C23 17 24 18 24 19V22H27C28 22 29 22.625 29 24V27C29 28 28 29 27 29H24C23 29 22 28 22 27V24H19C18 24 17 23 17 22V19C17 18 18 17 19 17H22ZM26.5 24H24.5C24.25 24 24 24.2188 24 24.5V26.625C24 26.875 24.2188 27.0625 24.4375 27.0625H26.5938C26.8125 27.0625 27 26.875 27 26.625V24.5C27 24.25 26.75 24 26.5 24ZM21.5938 19H19.4375C19.2188 19 19 19.2188 19 19.4375V21.5625C19 21.8125 19.2188 22 19.4375 22H21.5C21.7812 22 22 21.7812 22 21.5V19.4375C22 19.2188 21.8125 19 21.5938 19ZM26.0625 3C27.6875 3 29 4.34375 29 5.96875V12.0625C29 13.6875 27.6875 15 26.0625 15H19.9688C18.3438 15 17 13.6875 17 12.0625V5.96875C17 4.34375 18.3438 3 19.9688 3H26.0625ZM26.0625 5H19.9688C19.4375 5 19 5.4375 19 5.96875V12.0625C19 12.5938 19.4375 13 19.9688 13.0312H26.0625C26.5938 13 27 12.5938 27 12.0625V5.96875C27 5.4375 26.5938 5.03125 26.0625 5ZM7 24V22C7 21.4688 7.46875 21 8 21H10C10.5625 21 11 21.4688 11 22V24C11 24.5625 10.5625 25 10 25H8C7.46875 25 7 24.5625 7 24ZM7 10V8C7 7.46875 7.46875 7 8 7H10C10.5625 7 11 7.46875 11 8V10C11 10.5625 10.5625 11 10 11H8C7.46875 11 7 10.5625 7 10ZM21 10V8C21 7.46875 21.4688 7 22 7H24C24.5625 7 25 7.46875 25 8V10C25 10.5625 24.5625 11 24 11H22C21.4688 11 21 10.5625 21 10Z" fill="#1A1C1F"/>
</g>
<defs>
<clipPath id="clip0_187_615">
<rect width="32" height="32" fill="white"/>
</clipPath>
</defs>
</svg>

<svg xmlns="http://www.w3.org/2000/svg" width="32" height="32" fill="none"><g clip-path="url(#a)"><path fill="#1A1C1F" fill-rule="evenodd" d="M12.063 17C13.687 17 15 18.344 15 19.969v6.093A2.934 2.934 0 0 1 12.063 29H5.969C4.344 29 3 27.688 3 26.063v-6.094C3.031 18.344 4.344 17 5.969 17zm0 2H5.969a.974.974 0 0 0-.969.969v6.062c0 .532.438.969.969.969h6.094c.53 0 .937-.437.937-.969V19.97c0-.532-.406-.969-.937-.969m0-16C13.695 3 15 4.335 15 5.969v6.094A2.934 2.934 0 0 1 12.063 15H5.937A2.934 2.934 0 0 1 3 12.063V5.969C3 4.344 4.313 3 5.938 3zm0 2H5.969A.974.974 0 0 0 5 5.969v6.094c0 .53.438.937.969.968h6.094c.53-.031.937-.437.937-.969V5.97c0-.532-.406-.938-.937-.969M22 17c1 0 2 1 2 2v3h3c1 0 2 .625 2 2v3c0 1-1 2-2 2h-3c-1 0-2-1-2-2v-3h-3c-1 0-2-1-2-2v-3c0-1 1-2 2-2zm4.5 7h-2c-.25 0-.5.219-.5.5v2.125c0 .25.219.438.438.438h2.156c.218 0 .406-.188.406-.438V24.5c0-.25-.25-.5-.5-.5m-4.906-5h-2.157a.47.47 0 0 0-.437.438v2.125c0 .25.219.437.438.437H21.5c.281 0 .5-.219.5-.5v-2.062c0-.22-.187-.438-.406-.438m4.468-16C27.688 3 29 4.344 29 5.969v6.094A2.934 2.934 0 0 1 26.063 15h-6.094C18.344 15 17 13.688 17 12.063V5.969A2.99 2.99 0 0 1 19.969 3zm0 2H19.97a.974.974 0 0 0-.969.969v6.094c0 .53.438.937.969.968h6.093c.532-.031.938-.437.938-.969V5.97c0-.532-.406-.938-.937-.969M7 24v-2c0-.531.469-1 1-1h2c.563 0 1 .469 1 1v2c0 .563-.437 1-1 1H8c-.531 0-1-.437-1-1m0-14V8c0-.531.469-1 1-1h2c.563 0 1 .469 1 1v2c0 .563-.437 1-1 1H8c-.531 0-1-.437-1-1m14 0V8c0-.531.469-1 1-1h2c.563 0 1 .469 1 1v2c0 .563-.437 1-1 1h-2c-.531 0-1-.437-1-1" clip-rule="evenodd"/></g><defs><clipPath id="a"><path fill="#fff" d="M0 0h32v32H0z"/></clipPath></defs></svg>
